X: 20143
M: C
L: 1/8
K: A
e |\
e |\
c>BAg a>e=g>B | =G<GB>A {A}G2 G>B |
{d}c>B Af/g/ ae=gB | ae/f/ =gB {B}A2 A>e |\
{d}c>B A>g ae/f/ =gB | =G<GB>A G>ABG |\


